X:87
T:Mae'r Ddaear yn Glasu - The Earth is growing Green
M:2/4
L:1/8
Q:160
C:Trad.
R:Slow air
K:G
E | B B2 B | A A2 B | G B2 G | F F2 E | G
G AB |
B A2 F | E E2 G | F3 E | GG
GF | E A2 B |
d d2 B | c B2 B | c B2 A/2G/2 | B G2 E/
2F/2 | G E2 ||
